X: 21409
T: Kesh, The
R: jig
M: 6/8
K: Gmajor
|:D|G2 G GAB|ABA ABd|edd gdd|edB dBA|
GAG GAB|ABA ABd|edd gd B|AGF G2:|
|:A|B2 B dBd|ege dBG|BAB dBG|ABA AGA|
B2 B dBd|ege dBd|gfg aga|bgg g2:|

